**kern	**kern
*staff1	**staff1
*I"Piano	**I"Chords"
*clefG2	*clefG2
*>intro	*>intro
*k[b-e-a-]	*k[b-e-a-]
*M4/4	*M4/4
*E-:	*E-:
=1	=1
1r	1r
=2	=2
1r	1r
=3	=3
1r	1r
=4	=4
2r	1r
4r	.
8r	.
*>head1	*>head1
{16g/LL	.
16a-/JJ	.
=5||	=5||
16b-/LL	2E-:maj:7
16cc/	.
16g/	.
16a-/JJ	.
4b-\	.
8.r	2G-:dom:9-
16cc\	.
12dd-\L	.
12een\	.
12ddn\J	.
=	=
16ee-\LK	2F:min:9
8cc\	.
(16a-\Jk	.
12a-/L)	.
12g/	.
12f/J	.
12en/	2E:dom:9
6bn\	.
12r	.
12e/L	.
12e-/J	.
=7	=7
12b-/	2E-:maj:7
12g/	.
12d/J	.
12f/L	.
12en/	.
12d/J	.
12e-/L	.
12c/J}	.
12r	.
4r	.
=8	=8
8.r	2F:min:9	
{16c/	.
16f/LL	.
16a-/	.
16g/	.
16f/JJ	.
16e-/LL	2E-:dom:9
16c#/	.
16d/	.
16f/JJ	.
16a-\LL	.
16cc\	.
16b-\	.
16a-\JJ	.
=9	=9
16g/LL	2B-:min:7
16a-/	.
24f#/	.
24g/	.
24cc/JJ	.
24ff\LL	.
24een\	.
24ee-\	.
24dd-\	.
24cc\	.
24b-\JJ	.
32a-/LLL	2A:dom:9
32b-/	.
32a-/	.
32g/J	.
16f#/	.
16e-/JJ	.
8fn/L	.
16d/L	.
(16e-/JJ	.
=10	=10
12e-/)	1A-:maj
6c/}	.
4r	.
{40a-/LLL	.
40b-/	.
40g/	.
40f/	.
[40en/	.
32e/]	.
32g/	.
32b-/	.
[32dd-/JJJ	.
16dd-\LK]	.
8cc\	.
16b-\Jk	.
=11	=11
24an/	4F:dom:9
24r	.
24ee-\LL	.
16gg\	.
16gg\JJ	.
gg-q/	.
16ff\LL	4E-:dom
16een\	.
16ee-\	.
16dd\JJ	.
32dd-\LL	4D-:domL
32ee-\	.
32dd-\	.
32bn\J	.
16a\	.
16g\JJ	.
16f/LL	4B:dom
16en/J	.
8e-/J	.
=12	=12
16d/LL	4B:dom
16f/	.
16a-/	.
[16cc/JJ	.
16cc/LL]4E-:min	.
16f/	.
16b-/	.
16f/JJ	.
16a-\LL	4B-:dom
16dd\	.
16ff\	.
[16aa-\JJ	.
32aa-\LLL]4E-:dom	.
32dd\	.
32bn\	.
32a-\J	.
16g\	.
16a-\JJ	.
=13	=13
8b-\}	2E-:maj
8r	.
4r	.
4r	2G-:dom:9
{16dd-\LL	.
16ee-\	.
16een\	.
16ddn\JJ	.
=14	=14
6ee-\	2F:min:9
(12ee-\	.
6ee-\)	.
12cc#\	.
12dd\	2E:dom:9
6bn\}	.
4r	.
=15	=15
8r	2E:maj:7
8g/	.
12b-\L	.
12ee-\	.
12gg\J	.
12bb-\L	2G-:dom:9
12aa-\	.
[12een\J	.
8ee\]	.
8r	.
=16	=16
12gg~\L	2F:min:9
12ee-\	.
12cc\J	.
12gg~\L	.
12ee-\	.
12cc\J	.
8ff#\	2E:dom:9
4dd\	.
8ff#\	.
=17	=17
24een\LL2B-:min:7	.
24ff\J	.
12dd-\	.
12b-\J	.
12ff\L	.
12dd-\	.
12b-\J	.
8ee\	2A:dom:9
4dd-\	.
8bn\	.
=18	=18
16cc/LL	4A-:maj
16a-/J	.
8g/J	.
16b-/LL	4D:dim
16a-/	.
16g/	.
16f/JJ	.
16en/	4C:dom
16r	.
16b-\LL	.
16dd-\JJ	.
16cc/LL	4G-:dom
16b-/	.
16g/	.
16a-/JJ	.
=19	=19
16an/	2F:dom
8r	.
16g/	.
16f/LL	.
16e-/	.
16d/	.
16c/JJ	.
8.An/L	4B:min:7
16G/Jk	.
8A-/L	4E:dom:9
(F#q/	.
(8G/J)	.
=20	=20
8G/)}	4E-:maj:7
8r	.
4r	4E-:maj:6
4r	4C:min:6
8.r	4D:dom
{16dd\	.
=21	=21
32een\LLL1G:min:6	.
32ff\	.
32ee\	.
32dd\	.
32ee\	.
32ff\	.
32ee\	.
32dd\JJJ	.
32ee\LLL	.
32ff\	.
32ee\	.
32dd\	.
32ee\	.
32ff\	.
32ee\	.
32dd\JJJ	.
32ee\LLL	.
32ff\	.
32ee\	.
32dd\	.
32ee\	.
32ff\	.
32ee\	.
32dd\JJJ	.
32ee\LLL	.
32ff\	.
32ee\	.
32dd\	.
32ee\	.
32ff\	.
32ee\	.
32dd\JJJ	.
=22	=22
32ee-\LLL	2C:min:6
32ff\	.
32ee-\	.
32dd\	.
32ee-\	.
32ff\	.
32ee-\	.
32dd\JJJ	.
32ee-\LLL	.
32ff\	.
32ee-\	.
32dd\	.
32ee-\	.
32ff\	.
32ee-\	.
32dd\JJJ	.
32ee-\LLL	.
32ff\	.
32ee-\	2D:dom:5-
32dd\	.
32ee-\	.
32ff\	.
32ee-\	.
32dd\JJJ	.
16bn/LK	.
8a-/	.
16f#/Jk	.
=23	=23
8g/L	2G:min
16d/L	.
16g/JJ	.
12a-\L	.
12b-\	.
12cc\J	.
16dd\LL	4G-:maj
16b-\J	.
8g-\J	.
12r	4F:min
12b-/L	.
12f/J	.
=24	=24
4en/}	4E:min
4r	4D-:maj
4r	4C:maj
16r	4B:maj
{16a-\LL	.
24b-\	.
24dd\	.
24ff\JJ	.
=25	=25
16aan\LK2B-:dom	.
8ccc\	.
16aa\Jk	.
8ccc\L	.
16aa\L	.
16ccc\JJ	.
16bbn\LL2B-:min:7	.
16aa-\J	.
8een\J	.
8bb\}	.
8r	.
=26	=26
{12r	3C:min:7
6bb-\	.
16gg\LL	.
16ee-\	.
16cc\	.
16bn\JJ	.
16b-/LL	.
16g#/	.
16an/	.
16cc/JJ	.
16ee-\LL4B:dom	.
16gg-\	.
16ff\	.
16ee-\JJ	.
=27	=27
16dd\LL	2F:min:7
16b-\	.
32cc\L	.
32dd\	.
32cc\	.
32an\JJJ	.
16b-/LL	.
16g/	.
16a-/	.
16g/JJ	.
16f/LL	2C:dom:9-
16e-/	.
24en/	.
24g/	.
24b-/JJ	.
16dd-\LK	.
8cc\	.
16g\Jk	.
=28	=28
12b-/L	2F:min:9
12a-/J	.
12r	.
16g/LL	.
16f/	.
16en/	.
[16e-/JJ	.
16e-/LL]4B:dom	.
16c#/	.
16d/	.
16f/JJ	.
12a-/L	4E:dom
12bn/	.
12an/J	.
=29	=29
16b-\LK	2E-:maj:7
8dd\	.
[16ff\Jk	.
16ff\LK]	.
8dd\	.
[16ee-\Jk	.
16ee-\LK]	2G-:dom:9
8.b-\J}	.
4r	.
=30	=30
8.r	2F:min:9
{16g/	.
24a-\LL	.
24cc\	.
24ee-\	.
16gg\	.
[16aa-\JJ	.
16aa-\LK]	2E:dom:9
8bb-\	.
16b-\Jk	.
16aa-\LL	.
16gg\	.
16ff\	.
16een\JJ	.
=31	=31
16ee-\LL	2E-:maj:7
16dd\	.
16dd-\	.
16cc\JJ	.
16bn/LL	.
16b-/	.
16a-/	.
16g-/JJ	.
12f-/L	2G-:dom:9
12f-/	.
(12f-/J	.
16f-/LL)	.
16g-/	.
16f-/	.
16d/JJ	.
=32	=32
8e-/L	2F:min:9
16cc/L	.
[16a-/JJ	.
8.a-/L]	.
16f/Jk	.
8en/	2E:dom:9
4bn\	.
8b-\	.
=33	=33
24cc\LL	2B-:min:7
24dd\	.
24cc\J	.
8b-\J	.
16ee-\LL	.
16dd-\JJ}	.
8r	.
{16r	2A:dom:9
16ee-\LL	.
16een\	.
16ff\JJ	.
16ee-\LL	.
16een\	.
16ff\	.
16ee-\JJ	.
=34	=34
16een\LL	4Ab-:maj
16dd\	.
16ee-\	.
16cc\JJ	.
8g/L	4D:dim
16b-/L	.
16a-/JJ	.
16g/LL	4C:dom
16f/J	.
8en/J	.
16B-/LL	4B-:dom
16d-/	.
16c/	.
16B-/JJ	.
=35	=35
12An/	3F:dom
12r	.
24c/LL	.
24e-/JJ	.
32g/LLL	.
32f/J	.
16e-/JJ	.
16r	.
32f/LLL	.
32a-/JJJ	.
16cc\LK	.
8b-\	.
[16een\J	4E:dom
8ee\L]	.
8dd\J	.
=36	=36
16ee-\LL	2E-:maj:6
16b-\JJ}	.
8r	.
4r	.
4r	2B-:dom:9-
8.r	.
{16b-\	.
=37||	=37||
16ee-\LL	2E-:maj:7
16ee-\J	.
8dd\J	.
16ee-\LK	.
8b-\	.
[16ee-\Jk	.
16ee-\LK]2G-:dom:9	.
8.gg\J	.
4r	.
=38	=38
16r	2F:min:9
16b-\LL	.
16gg\	.
16aa-\JJ	.
16gg\LL	.
16ff\	.
32ee-\L	.
32ff\	.
32ee-\	.
32dd\JJJ	.
16dd-\LL2E:dom:9	.
16cc\	.
16bn\	.
16b-\JJ	.
32a-/LLL	.
32b-/	.
32a-/	.
32g/J	.
16f/	.
16e-/JJ	.
=39	=39
16d/LL	2E-:maj:7
16c/	.
16B-/	.
16A-/JJ	.
24G/LL	.
24B-/	.
24d/	.
16f/	.
16d/JJ	.
16e-/LL	2G-:dom:9
16g/	.
16b-/	.
16dd/JJ	.
8ff\L	.
16.een\L	.
32dd\JJk	.
=40	=40
16ee-\LL2F:min:9	.
16f\	.
16g\	.
[16a-\JJ	.
8a-\L]	.
16dd-\L	.
16cc\JJ	.
16bn/LL	2E:dom:9
16e-/	.
16f/	.
[16g-/JJ	.
8g-/L]	.
16.b-/L	.
32an/JJk	.
=41	=41
16b-/LL	2B-:min:7
16B-/	.
16c/	.
[16d-/JJ	.
4d-/]	.
16r	2A:dom:9
16c/LL	.
16e-/	.
16c/JJ	.
24d-/LL	.
24f/	.
24a-/	.
16cc/	.
16bn/JJ	.
=42	=42
16g/LL	4A-:maj
16e-/	.
16b-/	.
16g/JJ	.
12a-/	4D:dim
[6dd\	.
4dd\]	4C:dom
8.dd-\L	4G-:dom
16bn\Jk	.
=43	=43
16cc\LL	2F:dom
16an\JJ}	.
8r	.
4r	.
4r	2B:dom
8.r	.
{16g/	.
=44	=44
16a-/LL	2F:min:7
16d/JJ	.
8r	.
4r	.
2r	2E:dom:9
=45	=45
4r	2E-:maj:7
16e-/	.
16r	.
16ddd\LL	.
[16eee-\JJ	.
16eee-\LK]	2G-:dom	.
8ddd\	.
16ccc\Jk	.
16bb-\LL	.
16gg\	.
16aa-\	.
16gg\JJ	.
=46	=46
16ff\LL	2F:min:9
16ee-\	.
16een\	.
16gg\JJ	.
16ff\LL	.
16dd\	2E:dom:9
32ee-\L	.
32ff\	.
32ee-\	.
32cc#\JJJ	.
16dd\LL	.
16g\	.
16a-\	.
16ccn\JJ	.
16g/LL	.
16f#/	.
16b-/	.
16g/JJ	.
=47	=47
16d/LL	2E-:maj:7
16c/	.
16f/	.
16d/JJ	.
24e-\LL	.
24g\	.
24b-\	.
16dd\	.
[16ff\JJ	.
8ff\L]	2G-:dom:9
16een\L	.
16dd\JJ	.
16ee-\LL	.
16dd\	.
32cc\L	.
32dd\	.
32cc\	.
32b-\JJJ	.
=48	=48
8an/}	2F:min:9
8r	.
{24dd\LL	.
24cc\	.
24b-\	.
16.a\	.
32g\JJk	.
8a-/	2E:dom:9
8r	.
32cc\LLL	.
32dd\	.
32cc\	.
32b-\J	.
16an\	.
[16a-\JJ	.
=49	=49
8a-/L]	2B-:min:7
16f/L	.
[16a-/JJ	.
8.a-/L]	.
16f/Jk	.
12g/	2A:dom:9
6ee-\}	.
4r	.
=50	=50
8r	4A-:maj
{16ee-\LL	.
16ff\JJ	.
16gg\LL	4D:dim
16aa-\	.
16bb-\	.
16aa-\JJ	.
16gg\LL	4C:dom
16ff\	.
16een\	.
16g\JJ	.
16b-\LL	4G-:dom
16dd-\	.
16cc\	.
16b-\JJ	.
=51	=51
8an/L	2F:dom
16e-/L	.
16g/JJ	.
16f/LL	.
16e-/	.
16d/	.
16c/JJ	.
24Bn/LL	4B:min:7
24d/	.
24f#/	.
16a/	.
16g/JJ	.
16a-\LK	4E:dom:9+
8een\	.
16dd\Jk	.
=52	=52
4ee-\	2E-:maj
16dd\LL	.
16cc\	.
16b-\	.
16a-\JJ	.
12cc\	4C:min:6
6a-/}	4D:dom:9-
4r	.
=53	=53
4r	1G:min:6
{16b-\LL	.
16dd\J	.
8aa-\J	.
16ccc\LK	.
8ddd\	.
[16bb-\Jk	.
16bb-\LK]	.
8gg\	.
16gg\Jk	.
=54	=54
16eee-\LK2C:min:6	.
8ddd\	.
16ccc\Jk	.
16bb-\LL	.
16aa-\	.
16gg\	2D:dom:5-
16gg-\JJ	.
8gg-\L	.
8ee-\J	.
4ff\	.
=55	=55
4dd\	2G:min
32cc\LLL	.
32dd\	.
32cc\	.
32b-\J	.
16an\	.
16g\JJ	.
16b-/LL	4G-:maj
16g/	.
16g-/	.
[16f/JJ	.
8f/L]	4F:min
16g-/L	.
16f/JJ	.
=56	=56
24en/LL	4E:min
24g/	.
24b-/	.
16dd/	.
16an/JJ	.
16cc/LL	4D-:maj
16b-/	.
16a/	.
16g/JJ	.
12a-/	4C:maj
12r	.
[12g-/	.
8g-/]}	4B:maj
8r	.
=57	=57
2r	2B-:dom
4r	.
16r	2D-:min:7
{16a-/LL	.
16g-/	.
16en/JJ	.
=58	=58
12f/L	2C:min:7
12d/	.
12e-/J	.
12g\L	.
12b-\	.
12dd\J	.
4.dd-\	2B:min:7
16r	.
16b-\	.
=59	=59
32cc\LLL	2F:min:7
32dd-\	.
32cc\	.
32b-\J	.
24cc\	.
24bn\	.
24b-\JJ	.
8ff\L	.
[8ff\J	.
8ff\L]	2C:dom:9-
16een\L	.
16ddn\JJ	.
12dd-\	.
6b-\	.
=60	=60
32a-/LLL	2F:min:9
32b-/	.
32a-/	.
32f/	.
32a-/	.
32b-/	.
32a-/	.
32f/JJJ	.
4cc\	.
16een\LL	4B:min:7	.
16dd\	.
16f#\	.
16an\JJ	.
16dd-\LL	4E:dom	.
16cc\	.
16bn\	.
16a\JJ	.
=61	=61
16b-/LL	2E-:maj:7
16g/	.
16d/	.
16c/JJ	.
16f/LL	.
16d/	.
24e-/	.
24g/	.
24b-/JJ	.
12dd\L	2G-:dom:9
12ff\	.
12een\J	.
8ee-\}	.
8r	.
=62	=62
16r	2F:min:9
{cc#q/	.
8.dd\)	.
16ccn\LK	.
8cc\	.
[16dd\Jk	.
8dd\L]	2E:dom:9
16cc\L	.
16g\JJ	.
16dd-\LL	.
16bn\JJ	.
8r	.
=63	=63
2r	2E-:maj:7
16g\LL	.
16b-\	.
16ee-\	.
16gg\JJ	2G-:dom:9
16r	.
8bb-\L	.
16aan\Jk	.
=64	=64
16aa-\LL	2F:min:9
16gg\	.
24gg\	.
24ff\	.
24ee-\JJ	.
16een\LL	.
16gg\	.
16ff\	.
16dd\JJ	.
32ee-\LLL	2E:dom:9
32ff\	.
32ee-\	.
32cc#\J	.
16dd\	.
16b-\JJ	.
16ccn\LL	.
16dd-\	.
16ee-\	.
16ff\JJ	.
=65	=65
16gg\LK	2B-:min:9
8aa-\	.
[16bb-\Jk	.
16bb-\LK]	.
8.ff\J}	.
8r	2A:dom:9
{16een\LL	.
16ee\JJ	.
16aan\LL	.
16gg-\	.
16ee\	.
16dd\JJ	.
=66	=66
8ee-\L	4A-:maj
16gg-\L	.
16aa-\JJ	.
16r	4D-:dim
16ff\LL	.
16ee-\	.
16dd-\JJ	.
16cc/LL	4C:dom
16b-/	.
16a-/	.
16g/JJ	.
16f/LL	4G-:dom
16e-/	.
16.en/	.
32d/JJk	.
=67	=67
24e-/	2F:dom
24r	.
24b-\LL	.
16dd\	.
[16ff\JJ	.
16ff\LK]	.
8dd-\	.
16bn\Jk	.
16cc/LL	4B-:dom:9
16a-/	.
16f/	.
[16en/JJ	.
16e/LK]	4E:dom
8b/	.
16e/Jk	.
=68	=68
12e-/	2E-:maj:6
6b-\}	.
4r	.
4r	2B-:dom
8.r	.
{16b-\	.
=69||	=69||
48ee-\LLL	2E-:maj7
48ff\	.
48ee-\J	.
16dd\	.
48ee-\L	.
48ff\	.
48ee-\J	.
16dd\JJ	.
16ee-\LK	.
8gg\J	.
16r	.
16r	2G-:dom:9
16ee-\LL	.
16ff#\	.
16gg\JJ	.
8.r	.
16b-\	.
=70	=70
48ee-\LLL	2F:min:9	.
48ff\	.
48ee-\J	.
16dd\	.
48ee-\L	.
48ff\	.
48ee-\J	.
16dd\JJ	.
16ee-\LK	.
8gg\J}	.
16r	.
16r	2E:dom:9
{16ee-\LL	.
16ff#\	.
16gg\JJ}	.
4r	.
=71	=71
4r	2E-:maj:7
{8bb-\L	.
8eee-\J	.
16ddd\LK	2G-:dom:9
8eeen\	.
16ddd\Jk	.
16eee-\LL	.
16ddd\	.
16ccc\	.
16bb-\JJ	.
=72	=72
16aa-\LL	2F:min:9
16gg\	.
16ff\	.
16ee-\JJ	.
16een\LL	.
16gg\	.
16ff\	.
16dd\JJ	.
20ee-\LL	2E:dom:9
20ff\	.
20ee-\	.
20cc#\	.
[20dd\JJ	.
16dd\LL]	.
16b-\	.
16ccn\	.
16dd-\JJ	.
=73	=73
16ee-\LL	2B-:min:7
16ff\	.
16gg\	.
16aa-\JJ	.
16bb-\LL	.
16aa-\	.
16gg\	.
16ff\JJ	.
16een\LL	2A:dom:9
16ff#\	.
16ee\	.
16dd\JJ	.
16dd-\LL	.
16bn\	.
16an\	.
16g\JJ	.
=74	=74
16a-/LL	2A-:maj
16c/	.
16e-/	.
16f/JJ	.
16g/LL	.
16a-/	.
16b-/	.
16cc/JJ	.
12dd-\L	2C:dom
12cc\	.
(12gg-\J	.
6gg-\)	.
12een\	.
=75	=75
8ff\	2.F:maj
16r	.
16cc\	.
16ff\LL	.
16aan\	.
16gg\	.
16ff\JJ	.
16ff\LL	.
16dd\	.
32cc\L	.
32dd\	.
32cc\	.
32b-\JJJ	.
16dd-;\LL	4B-:dom:5
16cc-\	.
16an\	.
16b-\JJ	.
=76	=76
16gg-\LL	1E-:maj
16ff\	.
16bn\	.
16an\JJ	.
16a-/LL	.
16g-/	.
16en/	.
16d/JJ	.
2e-;/}	.
==	==
*-	.
